react/assets/icons/accessibility.svg

<svg width="48" height="48" viewBox="0 0 24 24" xmlns="http://www.w3.org/2000/svg" aria-labelledby="accessibilityIconTitle" stroke-linecap="square" fill="none"><path d="M2 16l.8-2M6 16l-.8-2m0 0L4 11l-1.2 3m2.4 0H2.8M20 13l2-3m-2 3l-2-3m2 3v3M8 12l2-2v6M13 12l2-2v6"/></svg>

<svg width="48px" height="48px" viewBox="0 0 24 24" xmlns="http://www.w3.org/2000/svg" aria-labelledby="accessibilityIconTitle" stroke-linecap="square" stroke-linejoin="miter" fill="none"> <title id="accessibilityIconTitle">A11Y (accessibility)</title> <path d="M2 16L2.8 14M6 16L5.2 14M5.2 14L4 11L2.8 14M5.2 14H2.8"/> <path d="M20 13L22 10M20 13L18 10M20 13L20 16"/> <path d="M8 12L10 10V16"/> <path d="M13 12L15 10V16"/> </svg>
